packages/tokens/icons/cartCrossArrows/size32Px.svg

<svg viewBox="0 0 32 32" fill="none" xmlns="http://www.w3.org/2000/svg" width="1em" height="1em"><circle cx="11.5" cy="28.5" r="1" stroke="currentColor"/><circle cx="20.8939" cy="28.5" r="1" stroke="currentColor"/><path d="M9.46362 15.4999L23.0123 15.4997C23.6523 15.4996 24.1276 16.0926 23.9883 16.7173L22.8488 21.8285C22.645 22.7429 21.8337 23.3933 20.8968 23.3933L10.5169 23.3935C9.93517 23.3935 9.46362 23.8651 9.46362 24.4468V24.4468C9.46362 25.0285 9.93518 25.5 10.5169 25.5H22.5" stroke="currentColor" stroke-linecap="round"/><path d="M6.5 13.5H8.83007L11 23" stroke="currentColor" stroke-linecap="round" stroke-linejoin="round"/><path d="M22.2678 10.7679L20.5 12.5356L18.7322 10.7679" stroke="currentColor" stroke-linecap="round" stroke-linejoin="round"/><path d="M20.5 11.5525V9.22083C20.5 8.79039 20.2246 8.40825 19.8162 8.27214L12.1838 5.7281C11.7754 5.59199 11.5 5.20985 11.5 4.77941V2.44775" stroke="currentColor" stroke-linecap="round" stroke-linejoin="round"/><path d="M9.73223 10.7327L11.5 12.5005L13.2678 10.7327" stroke="currentColor" stroke-linecap="round" stroke-linejoin="round"/><path d="M11.5 11.5525V9.22083C11.5 8.79039 11.7754 8.40825 12.1838 8.27214L19.8162 5.7281C20.2246 5.59199 20.5 5.20985 20.5 4.77941V2.44775" stroke="currentColor" stroke-linecap="round" stroke-linejoin="round"/></svg>

<svg xmlns="http://www.w3.org/2000/svg" fill="none" viewBox="0 0 32 32" width="1em" height="1em"><circle cx="11.5" cy="28.5" r="1" stroke="currentColor"/><circle cx="20.894" cy="28.5" r="1" stroke="currentColor"/><path stroke="currentColor" stroke-linecap="round" d="M9.464 15.5h13.548a1 1 0 0 1 .976 1.217l-1.14 5.111a2 2 0 0 1-1.951 1.565h-10.38c-.582 0-1.053.472-1.053 1.054v0c0 .582.471 1.053 1.053 1.053H22.5"/><path stroke="currentColor" stroke-linecap="round" stroke-linejoin="round" d="M6.5 13.5h2.33L11 23m11.268-12.232L20.5 12.536l-1.768-1.768"/><path stroke="currentColor" stroke-linecap="round" stroke-linejoin="round" d="M20.5 11.553V9.22a1 1 0 0 0-.684-.949l-7.632-2.544a1 1 0 0 1-.684-.949v-2.33m-1.768 8.285L11.5 12.5l1.768-1.768"/><path stroke="currentColor" stroke-linecap="round" stroke-linejoin="round" d="M11.5 11.553V9.22a1 1 0 0 1 .684-.949l7.632-2.544a1 1 0 0 0 .684-.949v-2.33"/></svg>
